source/img/icon_rings.svg

<svg xmlns="http://www.w3.org/2000/svg" viewBox="0 0 36 34"><path d="M23.5 1.7C14.1-1.7 4 2.5 1 10.9-2 19.4 3.1 29 12.5 32.3c2.2.8 4.4 1.2 6.7 1.2 2.4 0 4.8-.5 6.9-1.4 4.3-1.7 7.4-5 8.9-9.1 3-8.4-2.1-18-11.5-21.3zm10.6 21c-1.4 3.8-4.3 6.8-8.3 8.5-4 1.6-8.6 1.7-12.9.2C4 28.2-.9 19.2 1.9 11.3c2.2-6.1 8.2-9.8 14.9-9.8 2.1 0 4.2.4 6.3 1.1 8.9 3.2 13.8 12.2 11 20.1z"/><path d="M21.5 12.9c-1.3 0-2.5.5-3.5 1.3-.7-.6-1.7-1-2.7-1.2l1.9-3.3h-5.5l1.9 3.3C11 13.4 9 15.7 9 18.4c0 3 2.4 5.4 5.4 5.4 1.3 0 2.5-.5 3.5-1.3.9.8 2.2 1.3 3.5 1.3 3 0 5.4-2.4 5.4-5.4s-2.3-5.5-5.3-5.5zM18 21.1c-.6-.8-1-1.7-1-2.7 0-1 .4-2 1-2.7.6.8 1 1.7 1 2.7 0 1-.4 1.9-1 2.7zm-2.5-10.4l-1 1.7-1-1.7h2zm-5.4 7.6c0-2.5 2-4.4 4.4-4.4 1.1 0 2 .4 2.8 1-.8.9-1.3 2.1-1.3 3.4 0 1.3.5 2.5 1.2 3.5-.8.6-1.7 1-2.8 1-2.3 0-4.3-2-4.3-4.5zm11.4 4.5c-1.1 0-2-.4-2.8-1 .8-.9 1.2-2.1 1.2-3.5 0-1.3-.5-2.5-1.2-3.5.8-.6 1.7-1 2.8-1 2.5 0 4.4 2 4.4 4.4 0 2.6-2 4.6-4.4 4.6z"/></svg>

<?xml version="1.0" encoding="utf-8"?>
<!-- Generator: Adobe Illustrator 27.1.1, SVG Export Plug-In . SVG Version: 6.00 Build 0)  -->
<svg version="1.1" id="Layer_1" xmlns="http://www.w3.org/2000/svg" xmlns:xlink="http://www.w3.org/1999/xlink" x="0px" y="0px"
	 viewBox="0 0 36 34" style="enable-background:new 0 0 36 34;" xml:space="preserve">
<g>
	<path d="M23.5,1.7C14.1-1.7,4,2.5,1,10.9C-2,19.4,3.1,29,12.5,32.3c2.2,0.8,4.4,1.2,6.7,1.2c2.4,0,4.8-0.5,6.9-1.4
		c4.3-1.7,7.4-5,8.9-9.1C38,14.6,32.9,5,23.5,1.7z M34.1,22.7c-1.4,3.8-4.3,6.8-8.3,8.5c-4,1.6-8.6,1.7-12.9,0.2
		C4,28.2-0.9,19.2,1.9,11.3c2.2-6.1,8.2-9.8,14.9-9.8c2.1,0,4.2,0.4,6.3,1.1C32,5.8,36.9,14.8,34.1,22.7z"/>
	<path d="M21.5,12.9c-1.3,0-2.5,0.5-3.5,1.3c-0.7-0.6-1.7-1-2.7-1.2l1.9-3.3h-5.5l1.9,3.3c-2.6,0.4-4.6,2.7-4.6,5.4
		c0,3,2.4,5.4,5.4,5.4c1.3,0,2.5-0.5,3.5-1.3c0.9,0.8,2.2,1.3,3.5,1.3c3,0,5.4-2.4,5.4-5.4S24.5,12.9,21.5,12.9z M18,21.1
		c-0.6-0.8-1-1.7-1-2.7c0-1,0.4-2,1-2.7c0.6,0.8,1,1.7,1,2.7C19,19.4,18.6,20.3,18,21.1z M15.5,10.7l-1,1.7l-1-1.7H15.5z M10.1,18.3
		c0-2.5,2-4.4,4.4-4.4c1.1,0,2,0.4,2.8,1C16.5,15.8,16,17,16,18.3c0,1.3,0.5,2.5,1.2,3.5c-0.8,0.6-1.7,1-2.8,1
		C12.1,22.8,10.1,20.8,10.1,18.3z M21.5,22.8c-1.1,0-2-0.4-2.8-1c0.8-0.9,1.2-2.1,1.2-3.5c0-1.3-0.5-2.5-1.2-3.5
		c0.8-0.6,1.7-1,2.8-1c2.5,0,4.4,2,4.4,4.4C25.9,20.8,23.9,22.8,21.5,22.8z"/>
</g>
</svg>
